X: 20891
T: A Little
T: FROM THE ENTERTAINMENT OF THE "CAKE HOUSE."
C: Dibdin.
Q: "Briskly."
%R: jig
B: W. Hamilton "Universal Tune-Book" Vol. 2 Glasgow 1846 p.89 #1
S: http://s3-eu-west-1.amazonaws.com/itma.dl.printmaterial/book_pdfs/hamiltonvol2web.pdf
Z: 2016 John Chambers <jc:trillian.mit.edu>
M: 6/8
L: 1/8
K: C
%%slurgraces yes
%%graceslurs yes
% - - - - - - - - - - - - - - - - - - - - - - - - -
g/g/ |\
{f}e2f gec | cBc dBG | {f}e2f (ge)c | cBc dBG |\
{d}d2c B2d | {e}d2c Bcd | (ed)c (BA)d | BGz g3 |\
(ed)c (BA)d | BGz z2G | GAB (Bcd) |
def g2G | GAB (Bcd) | def g2c |\
ccB ABc | cde Hf2d/d/ | BAG G2G | cez z2e |\
dfz z2f | egz g3 | agf edg | ecz z2 |]
% - - - - - - - - - - - - - - - - - - - - - - - - -

%%sep 1 1 500
%%sep 1 1 500

